alura/assets/api/cursos/fundamentos-da-cor.svg

<svg xmlns="http://www.w3.org/2000/svg" id="Layer_1" x="0" y="0" version="1.1" viewBox="0 0 50 50" xml:space="preserve"><style>.st2{fill:#444}</style><path fill="#afe55d" d="M48.6 25c0-6.3-2.5-12-6.6-16.1L2.5 23.2c0 .6-.1 1.2-.1 1.8 0 7.9 3.9 14.8 9.9 19l35.4-12.9c.6-2 .9-4 .9-6.1z"/><path fill="#c3ff68" d="M25.5 1.9c-12.2 0-22.1 9.4-23 21.3L42 8.9c-4.2-4.3-10-7-16.5-7z"/><path d="M25.2 11.6l11.5 6.7v13.4l-11.5 6.7-11.7-6.7V18.3l11.7-6.7m0-.8l-.4.2-11.7 6.7-.4.2v14.2l.4.2L24.8 39l.4.2.4-.2 11.5-6.7.4-.2V18l-.4-.2L25.6 11l-.4-.2z" class="st2"/><path d="M25.2 12.2l10.9 19.1h-22l11.1-19.1m.1-1.5l-.6 1.1-11 19-.8 1.2h24.6l-.6-1.1-11-19.1-.6-1.1z" class="st2"/><path d="M25.2 25.5l-6-3.4c-.2-.1-.2-.3-.1-.5s.3-.2.5-.1l5.6 3.2 5.6-3.2c.2-.1.4 0 .5.1.1.2 0 .4-.1.5l-6 3.4z" class="st2"/><path d="M25.2 32c-.2 0-.4-.2-.4-.4l.1-6.6c0-.2.2-.4.4-.4s.4.2.4.4l-.1 6.6c-.1.2-.2.4-.4.4z" class="st2"/><path d="M25.2.7C11.8.7.9 11.6.9 25s10.9 24.3 24.3 24.3S49.6 38.5 49.6 25 38.6.7 25.2.7zM47 24.6h-3.2c-.1-4.9-2.1-9.3-5.3-12.6l2.2-2.2c3.9 3.8 6.2 9.1 6.3 14.8zM25.2 42.7c-9.8 0-17.7-7.9-17.7-17.7 0-9.8 7.9-17.7 17.7-17.7s17.7 8 17.7 17.7c0 9.8-7.9 17.7-17.7 17.7zM40.3 9.3L38 11.5c-3.3-3.1-7.7-5.1-12.6-5.1V3.2c5.8.1 11 2.4 14.9 6.1zM24.7 3.2v3.2c-4.8.1-9.2 2.1-12.5 5.2L10 9.4c3.8-3.7 9-6.1 14.7-6.2zM9.5 9.9l2.3 2.3c-3.1 3.3-5.1 7.6-5.2 12.4H3.4c.1-5.7 2.4-10.8 6.1-14.7zM3.4 25.4h3.2c.1 4.8 2 9.2 5.1 12.5l-2.2 2.2c-3.7-3.8-6-9-6.1-14.7zM10 40.7l2.3-2.3c3.3 3.2 7.6 5.1 12.5 5.3v3.2c-5.8-.2-11-2.5-14.8-6.2zm15.5 6.2v-3.2c4.9-.1 9.3-2 12.6-5.2l2.2 2.2c-3.8 3.8-9.1 6.1-14.8 6.2zm15.4-6.7L38.6 38c3.2-3.3 5.2-7.7 5.2-12.6H47c0 5.7-2.4 11-6.1 14.8z" class="st2"/></svg>

<?xml version="1.0" encoding="utf-8"?>
<!-- Generator: Adobe Illustrator 22.1.0, SVG Export Plug-In . SVG Version: 6.00 Build 0)  -->
<svg version="1.1" id="Layer_1" xmlns="http://www.w3.org/2000/svg" xmlns:xlink="http://www.w3.org/1999/xlink" x="0px" y="0px"
	 viewBox="0 0 50 50" style="enable-background:new 0 0 50 50;" xml:space="preserve">
<style type="text/css">
	.st0{fill:#AFE55D;}
	.st1{fill:#C3FF68;}
	.st2{fill:#444444;}
</style>
<g>
	<path class="st0" d="M48.6,25c0-6.3-2.5-12-6.6-16.1L2.5,23.2c0,0.6-0.1,1.2-0.1,1.8c0,7.9,3.9,14.8,9.9,19l35.4-12.9
		C48.3,29.1,48.6,27.1,48.6,25z"/>
</g>
<g>
	<path class="st1" d="M25.5,1.9c-12.2,0-22.1,9.4-23,21.3L42,8.9C37.8,4.6,32,1.9,25.5,1.9z"/>
</g>
<g>
	<path class="st2" d="M25.2,11.6l11.5,6.7v13.4l-11.5,6.7l-11.7-6.7V18.3L25.2,11.6 M25.2,10.8L24.8,11l-11.7,6.7l-0.4,0.2v0.4v13.4
		v0.4l0.4,0.2l11.7,6.7l0.4,0.2l0.4-0.2l11.5-6.7l0.4-0.2v-0.4V18.4v-0.4l-0.4-0.2L25.6,11L25.2,10.8L25.2,10.8z"/>
</g>
<g>
	<path class="st2" d="M25.2,12.2l10.9,19.1l-22,0L25.2,12.2 M25.3,10.7l-0.6,1.1l-11,19L12.9,32l1.3,0l22,0l1.3,0l-0.6-1.1
		L25.9,11.8L25.3,10.7L25.3,10.7z"/>
</g>
<g>
	<path class="st2" d="M25.2,25.5l-6-3.4c-0.2-0.1-0.2-0.3-0.1-0.5s0.3-0.2,0.5-0.1l5.6,3.2l5.6-3.2c0.2-0.1,0.4,0,0.5,0.1
		c0.1,0.2,0,0.4-0.1,0.5L25.2,25.5z"/>
</g>
<g>
	<path class="st2" d="M25.2,32C25.2,32,25.2,32,25.2,32c-0.2,0-0.4-0.2-0.4-0.4l0.1-6.6c0-0.2,0.2-0.4,0.4-0.4c0,0,0,0,0,0
		c0.2,0,0.4,0.2,0.4,0.4l-0.1,6.6C25.5,31.8,25.4,32,25.2,32z"/>
</g>
<path class="st2" d="M25.2,0.7C11.8,0.7,0.9,11.6,0.9,25s10.9,24.3,24.3,24.3S49.6,38.5,49.6,25S38.6,0.7,25.2,0.7z M47,24.6h-3.2
	c-0.1-4.9-2.1-9.3-5.3-12.6l2.2-2.2C44.6,13.6,46.9,18.9,47,24.6z M25.2,42.7c-9.8,0-17.7-7.9-17.7-17.7c0-9.8,7.9-17.7,17.7-17.7
	S42.9,15.3,42.9,25C42.9,34.8,35,42.7,25.2,42.7z M40.3,9.3L38,11.5c-3.3-3.1-7.7-5.1-12.6-5.1V3.2C31.2,3.3,36.4,5.6,40.3,9.3z
	 M24.7,3.2v3.2c-4.8,0.1-9.2,2.1-12.5,5.2L10,9.4C13.8,5.7,19,3.3,24.7,3.2z M9.5,9.9l2.3,2.3c-3.1,3.3-5.1,7.6-5.2,12.4H3.4
	C3.5,18.9,5.8,13.8,9.5,9.9z M3.4,25.4h3.2c0.1,4.8,2,9.2,5.1,12.5l-2.2,2.2C5.8,36.3,3.5,31.1,3.4,25.4z M10,40.7l2.3-2.3
	c3.3,3.2,7.6,5.1,12.5,5.3v3.2C19,46.7,13.8,44.4,10,40.7z M25.5,46.9v-3.2c4.9-0.1,9.3-2,12.6-5.2l2.2,2.2
	C36.5,44.5,31.2,46.8,25.5,46.9z M40.9,40.2L38.6,38c3.2-3.3,5.2-7.7,5.2-12.6H47C47,31.1,44.6,36.4,40.9,40.2z"/>
</svg>
